X:1
T:Title
%%score { ( 1 3 ) | ( 2 4 ) }
L:1/8
M:6/8
K:Bb
V:1 treble nm="Grand Piano"
V:3 treble 
V:2 bass 
V:4 bass 
V:1
 z3 z2[Q:1/4=84] [DF] | [DF][Dd][DB] AGA | [DB]3 [DF]2 [DF] | FCD EFE |[M:5/8] D-D- D3 | %5
[M:1/8] [DF] |[M:3/4] [DF][Dd] [DB]A GA | B3 B3 | A>c c[=EG]- [EG]/[Ec]/[Ec] | F6 | cc- c/=B/ c3 | %11
 BB- B/A/ B3 | G>G [GB][Ge] [EG]>[EG] |[M:5/8] [DF]-[DF]- [DF]3 |[M:1/8] [DF] | %15
[M:3/4] [DF][Dd] [DB]A GA | [DB]3 G3 | F>B dc BA |[M:5/8] B-[DB-][EB-] [DB]2 |] %19
V:2
 z3 z2 [B,,B,] | [B,,B,][B,,B,][B,,B,] [F,CE][F,CE][F,CE] | [B,,B,]3 [B,,B,]2 [B,,B,] | %3
 [F,A,C][F,A,][F,B,] [F,A,C][F,A,D][F,A,C] |[M:5/8] [B,,F,B,]-[B,,F,B,]- [B,,F,B,]3 | %5
[M:1/8] [B,,B,] |[M:3/4] [B,,B,][B,,B,] [B,,B,][F,CE] [F,CE][F,CE] | [G,B,D]3 [G,DF]3 | %8
 [CF]>[A,CF] [F,A,F][K:bass][C,B,]- [C,B,]/[C,B,]/[C,B,] | [F,A,C]6 | %10
 [F,EF][F,EF]- [F,EF]/[F,DF]/ [F,EF]3 | [B,DF][B,DF]- [B,DF]/[B,_DF]/ [B,=DG]3 | %12
 [E,B,E]>[E,B,E] [E,E][E,B,] [E,B,]>[E,B,] |[M:5/8] [B,,B,]-[B,,B,]- [B,,B,]3 |[M:1/8] [B,,B,] | %15
[M:3/4] [B,,B,][B,,B,] [B,,B,][F,CE] [F,CE][F,CE] | [B,,B,]3 [E,B,E]3 | %17
 [F,B,D]>[F,B,D] [F,B,F][F,A,E] [F,B,D][F,CE] |[M:5/8] z B,G, F,2 |] %19
V:3
 x6 | x6 | x6 | x6 |[M:5/8] x5 |[M:1/8] x |[M:3/4] x6 | x6 | x6 | x6 | x6 | x6 | x6 |[M:5/8] x5 | %14
[M:1/8] x |[M:3/4] x6 | x6 | x6 |[M:5/8] [B,D] z z z2 |] %19
V:4
 x6 | x6 | x6 | x6 |[M:5/8] x5 |[M:1/8] x |[M:3/4] x6 | x6 | x3[K:bass] x3 | x6 | x6 | x6 | x6 | %13
[M:5/8] x5 |[M:1/8] x |[M:3/4] x6 | x6 | x6 |[M:5/8] B,,-B,,- B,,3 |] %19

